X: 07041
T: GARRETT'S HORNPIPE
C: Bob McQuillen 11 Oct 88
B: Bob's Note Book 7 #41
%R: hornpipe,reel
Z: 2020 John Chambers <jc:trillian.mit.edu>
M: C	% Actually; no meter in the booklet. ;-)
L: 1/8
K: D
fe \
| d2AF GBAc | d2AG FDFA | dfeg fdAF | GBAF Egfe |\
| d2AF GBAc | d2AG FDFA | GEGB AFAd | cdec d2 :|
|: de \
| f2fe dAde | f2gf edAd | fgfe dAdf | edcB A2AG |\
| FDFA GEGB | AFAd fdAF | GBAd fedc | e2d2 d2 :|
%%begintext align
%% Jay Garrett
%% from Hancock, N.H. likes to dance about
%% as well as I like to play for a dance., so
%% here is a tune for you, Jay! (And thanks
%% again for that T-shirt!)
%%endtext

%%sep 1 1 500

%%sep 1 1 500

